X:01
T: 15. The Sloe
Q:1/4=180
M:4/4
L:1/8
K:D
A2|"D"d2A2 d2e2|"D"f2>e2 d2c2|"G"B2A2 BcdB|"A"A2G2 "D"F2A2|
"D"d2A2 d2e2|"D"f2>e2 d2c2|"G"B2A2 "A"B2c2|"D"d4-d2:|
|:A2|"D" B2 A2F2A2|B2 A2F2dd|"D"d2cc "A"c2BB|B2A2 "D"A2dd|
"A"d2c2 c2ee|"D"e2d2 d2f2|"G"f2e2 "A"B2c2|"D"d4-d2:|





